flaticon/social-media/skype.svg

<svg xmlns="http://www.w3.org/2000/svg" width="32" height="32" viewBox="0 0 24 24">
    <path d="M 23.28125 14.078125 C 23.398438 13.398438 23.480469 12.71875 23.480469 12.039062 C 23.480469 5.761719 18.359375 0.640625 12.078125 0.640625 C 11.398438 0.640625 10.71875 0.71875 10.039062 0.839844 C 9.039062 0.28125 7.921875 0 6.761719 0 C 3.039062 0 0 3.039062 0 6.761719 C 0 7.878906 0.28125 9.039062 0.839844 10.039062 C 0.71875 10.71875 0.640625 11.398438 0.640625 12.078125 C 0.640625 18.359375 5.761719 23.480469 12.039062 23.480469 C 12.71875 23.480469 13.398438 23.398438 14.078125 23.28125 C 14.960938 23.761719 16.039062 24 17.359375 24 C 21.078125 24 24 21.078125 24 17.359375 C 24 16.039062 23.761719 14.960938 23.28125 14.078125 Z M 17.359375 23.199219 C 16.121094 23.199219 15.160156 22.960938 14.359375 22.519531 L 14.238281 22.441406 L 14.078125 22.480469 C 13.398438 22.601562 12.71875 22.679688 12.039062 22.679688 C 6.199219 22.679688 1.441406 17.921875 1.441406 12.078125 C 1.441406 11.398438 1.519531 10.71875 1.640625 10.039062 L 1.679688 9.878906 L 1.601562 9.761719 C 1.078125 8.839844 0.800781 7.800781 0.800781 6.761719 C 0.800781 3.480469 3.480469 0.800781 6.761719 0.800781 C 7.800781 0.800781 8.839844 1.078125 9.761719 1.601562 L 9.878906 1.679688 L 10.039062 1.640625 C 10.71875 1.519531 11.398438 1.441406 12.078125 1.441406 C 17.921875 1.441406 22.679688 6.199219 22.679688 12.039062 C 22.679688 12.71875 22.601562 13.398438 22.480469 14.078125 L 22.441406 14.238281 L 22.519531 14.359375 C 22.960938 15.160156 23.199219 16.121094 23.199219 17.359375 C 23.199219 20.640625 20.640625 23.199219 17.359375 23.199219 Z M 17.359375 23.199219"/>
    <path d="M 13.039062 10.078125 C 10.039062 9.480469 9.601562 8.71875 9.558594 8.519531 C 9.480469 8.238281 9.679688 8 9.878906 7.839844 C 10.398438 7.398438 11.640625 7.039062 12.71875 7.238281 C 13.121094 7.320312 13.679688 7.519531 13.960938 8 C 14.640625 9.320312 15.359375 10.359375 16.839844 10 C 17.320312 9.878906 17.679688 9.558594 17.921875 9.078125 C 18.199219 8.441406 18.199219 7.558594 17.839844 6.878906 C 17.441406 6.121094 15.71875 4.160156 12.359375 4.160156 C 9.160156 4.160156 5.480469 5.320312 5.480469 8.601562 C 5.480469 11.199219 7.761719 13.039062 11.71875 13.601562 C 13.71875 13.878906 14.359375 14.519531 14.558594 14.878906 C 14.679688 15.121094 14.679688 15.359375 14.601562 15.601562 C 14.28125 16.359375 13.199219 17.078125 11.519531 16.921875 C 9.601562 16.71875 8.960938 15 8.839844 14.640625 C 8.519531 13.640625 7.441406 13.480469 6.878906 13.519531 C 6.601562 13.558594 5.960938 13.761719 5.558594 14.359375 C 5.320312 14.71875 5.078125 15.398438 5.441406 16.441406 C 5.878906 17.800781 7.359375 20.039062 12.28125 20.039062 C 16.398438 20.039062 18.878906 17.441406 18.921875 15.039062 C 18.921875 12.398438 17.121094 10.878906 13.039062 10.078125 Z M 12.238281 19.238281 C 8.960938 19.238281 6.800781 18.160156 6.160156 16.199219 C 5.960938 15.601562 5.960938 15.121094 6.199219 14.800781 C 6.441406 14.480469 6.800781 14.320312 6.960938 14.320312 C 6.960938 14.320312 7 14.320312 7.078125 14.320312 C 7.320312 14.320312 7.921875 14.359375 8 14.839844 C 8.160156 15.28125 8.960938 17.441406 11.359375 17.679688 C 13.480469 17.878906 14.839844 16.878906 15.28125 15.839844 C 15.480469 15.359375 15.441406 14.839844 15.199219 14.398438 C 14.878906 13.800781 14 13.039062 11.800781 12.71875 C 9.71875 12.398438 6.238281 11.480469 6.238281 8.519531 C 6.238281 5.839844 9.519531 4.878906 12.320312 4.878906 C 15.28125 4.878906 16.761719 6.519531 17.078125 7.160156 C 17.28125 7.601562 17.320312 8.238281 17.121094 8.679688 C 17 8.960938 16.800781 9.121094 16.558594 9.160156 C 15.839844 9.320312 15.398438 9.160156 14.558594 7.558594 C 14.238281 6.960938 13.601562 6.558594 12.761719 6.398438 C 11.519531 6.199219 10 6.519531 9.238281 7.199219 C 8.761719 7.640625 8.558594 8.160156 8.679688 8.679688 C 8.960938 9.640625 10.28125 10.320312 12.800781 10.800781 C 17.398438 11.71875 18.039062 13.398438 18.039062 14.960938 C 18.039062 17.039062 15.878906 19.238281 12.238281 19.238281 Z M 12.238281 19.238281"/>
</svg>

<svg xmlns="http://www.w3.org/2000/svg" width="32" height="32" viewBox="0 0 24 24">
    <path d="M23.281 14.078c.117-.68.2-1.36.2-2.039C23.48 5.762 18.358.641 12.077.641c-.68 0-1.36.078-2.039.199C9.04.28 7.922 0 6.762 0 3.039 0 0 3.04 0 6.762c0 1.117.281 2.277.84 3.277-.121.68-.2 1.36-.2 2.04 0 6.28 5.122 11.401 11.4 11.401.679 0 1.358-.082 2.038-.199.883.48 1.961.719 3.281.719C21.08 24 24 21.078 24 17.36c0-1.32-.238-2.4-.719-3.282zM17.36 23.2c-1.238 0-2.199-.238-3-.68l-.12-.078-.16.04c-.68.12-1.36.199-2.04.199-5.84 0-10.598-4.758-10.598-10.602 0-.68.079-1.36.2-2.039l.039-.16-.078-.117a6.097 6.097 0 0 1-.801-3C.8 3.48 3.48.8 6.76.8c1.04 0 2.079.277 3 .8l.118.079.16-.04c.68-.12 1.36-.199 2.04-.199 5.843 0 10.6 4.758 10.6 10.598 0 .68-.077 1.36-.199 2.04l-.039.16.079.12c.44.801.68 1.762.68 3 0 3.282-2.56 5.84-5.84 5.84zm0 0"/>
    <path d="M13.04 10.078c-3-.598-3.438-1.36-3.481-1.558-.079-.282.12-.52.32-.68.52-.442 1.762-.8 2.84-.602.402.082.96.282 1.242.762.68 1.32 1.398 2.36 2.879 2 .48-.121.84-.441 1.082-.922.277-.637.277-1.52-.082-2.2-.399-.757-2.121-2.718-5.48-2.718-3.2 0-6.88 1.16-6.88 4.442 0 2.597 2.282 4.437 6.239 5 2 .277 2.64.918 2.84 1.277.12.242.12.48.043.723-.32.757-1.403 1.476-3.082 1.32C9.602 16.719 8.96 15 8.84 14.64c-.32-1-1.399-1.16-1.961-1.121-.277.039-.918.242-1.32.84-.239.359-.48 1.038-.118 2.081.438 1.36 1.918 3.598 6.84 3.598 4.117 0 6.598-2.598 6.64-5 0-2.64-1.8-4.16-5.882-4.96zm-.802 9.16c-3.277 0-5.437-1.078-6.078-3.039-.2-.597-.2-1.078.04-1.398.241-.32.6-.48.76-.48h.118c.242 0 .844.038.922.519.16.441.96 2.601 3.36 2.84 2.12.199 3.48-.801 3.921-1.84.2-.48.16-1-.082-1.442-.32-.597-1.199-1.359-3.398-1.68-2.082-.32-5.563-1.238-5.563-4.198 0-2.68 3.282-3.641 6.082-3.641 2.961 0 4.442 1.64 4.758 2.281.203.442.242 1.078.043 1.52-.121.28-.32.441-.562.48-.72.16-1.16 0-2-1.601-.32-.598-.957-1-1.797-1.16-1.242-.2-2.762.12-3.524.8-.476.442-.68.961-.558 1.48.28.962 1.601 1.641 4.12 2.122 4.598.918 5.24 2.597 5.24 4.16 0 2.078-2.161 4.277-5.802 4.277zm0 0"/>
</svg>
